X:1
T:Title
%%score { ( 1 3 5 6 ) | ( 2 4 7 ) }
L:1/8
M:4/4
K:Ab
V:1 treble nm="Grand Piano"
V:3 treble 
V:5 treble 
V:6 treble 
V:2 bass 
V:4 bass 
V:7 bass 
V:1
 z4 z2[Q:1/4=100] E2 | A2 G>A B2 E2 | [Ee]2 [Ed]2 [Ec][_Gc][=Gd][EAe] | %3
 [FAdf]2 [FA_c=df]2 [A=ce]2 [GB_deg]2 |[M:3/4] [ca]2 [CA]2 [CA]2 |[M:1/4] E2 | %6
[M:4/4] A2 G>A B2 z[K:bass] D, | [Ee]2 [Ed]2 [Ec] [CA]2 [EA] | [Ed]2 [Ec]2 [FB]2 [B,FA]2 | %9
 [B,EG]2 [A,=DF]2 [G,E]2 FG | A2 G>A B2 z[K:bass] D, | [Ee]2 [Ed]2 [Ec] [CEA]2 A | %12
 B2 B2 B2 [=DB]2 | E6 E2 | d2 B>G E2 G2 | B2 B2 B2 E2 | [Gd]2 [Fd]2 [Ed]2 [Fd]2 | %17
 d2- [Ad-]2 [EBd]2 [EBd]2 | z8 | e4 z4 | [CEA]4 [B,DG]4 |[M:3/4] [A,CA]6 |[M:1/4] E2 | %23
[M:4/4] [ce]3 d/c/ [Bd]3 d/c/ | [Ac]2 [EA]2 [EGB]2 E2 | [ce]3 d/c/ [Bd]3 c/B/ | %26
 [Ac]2 [EAe]2 [EGB]2 [DE]2 | E3- [E-G]/[E-A]/ [DE-B]3 [E-A]/[EB]/ | c2 e2 =ef .[Fd]2 | %29
 [CEA]4 [EGB]4 | [EAc]6 [DE]2 | E3- [E-G]/[E-A]/ [DE-B]3 [E-A]/[EB]/ | c2 e2 =efdB | A4 G4 | %34
 [CEA]6 z2 | z4 c4- | c6 E2- | E2 c2 e4- | e6 z2 | c4 e4 | [ca]8- | [ca]8- |[M:3/4] [ca]6 |] %43
V:2
 z4 z2 E,2 | A,2 G,>A, B,2 E,D, | [C,A,]2 [B,,G,]2 [A,,A,][=A,,=A,][B,,B,][C,C] | %3
 [D,D]2 [=D,_C]2 [E,=CE]2 [E,,E,]2 |[M:3/4] [A,,A,]2 [A,,E,]2 [A,,E,]2 |[M:1/4] E,2 | %6
[M:4/4] A,2 G,>A, B,2 E,2 | [C,A,]2 [B,,G,]2 [A,,A,] [A,,A,]2 [C,A,] | %8
 [B,,G,]2 [C,A,]2 [D,A,]2 =D,2 | E,2 B,,2 E,2 F,G, | A,2 G,>A, B,2 E,2 | %11
 [C,A,]2 [B,,G,]2 [A,,A,] A,,2 [A,CE] | [G,B,E]2 [G,B,E]2 [F,A,=D]2 [B,,A,]2 | [E,G,]6 [E,G,]2 | %14
 [E,B,E]2 [E,DE]>[E,B,E] [E,G,]2 [E,B,E]2 | [E,G,E]2 [F,A,=D]2 [G,B,E]2 [A,C]2 | %16
 [E,B,]2 [E,A,]2 [E,G,]2 [E,A,]2 | B,4 z4 | A,2 z[K:treble] G/A/[K:bass] G,2 z[K:treble] A/B/ | %19
 A,2 C,2 [D,D]2 z[K:treble] B | E,2 E,2 E,2 E,2 |[M:3/4] A,,6 |[M:1/4] E,2 | %23
[M:4/4] A,2 z[K:treble] B/A/[K:bass] G,2 z[K:treble] B/A/ | A,2 C,2 E,2 G,2 | %25
 A,2 z[K:treble] B/A/[K:bass] G,2 z[K:treble] A/G/ | A,2 C,2 E,2 G,2 | A,2 z B,/C/ G,2 z C/D/ | %28
 [A,E]2 _G2- [C,A,G]2 z[K:treble] B | E,2 E,2 E,2 E,2 | A,2 E,C, A,,2 E,2 | %31
 A,2 z B,/C/ G,2 z C/D/ | [A,E]2 _G2- [C,A,G]2 D,-[D,D] | [E,CE]2 [E,C]2 [E,DE]2 [E,D]2 | A,,6 E2 | %35
 z4 A4- | A6[K:treble] z2 | z2 E4[K:bass] z2 | [A,C]2 [E,D]2 [A,E]2 A,2 | C4 E4 | E8- | E8- | %42
[M:3/4] E6 |] %43
V:3
 x8 | x8 | x8 | x8 |[M:3/4] x6 |[M:1/4] x2 |[M:4/4] z4 z2 E2[K:bass] | x8 | x8 | x8 | %10
 z4 z2 E2[K:bass] | x8 | x8 | x8 | x8 | x8 | x8 | G2 z2 z4 | [Ac]3 B/c/ [Bd]3 c/d/ | %19
 c2 z2 =ef .[DFd]2 | x8 |[M:3/4] x6 |[M:1/4] x2 |[M:4/4] E8- | E2 z2 z4 | E8- | E2 z2 z4 | %27
 [CA]4 z4 | x8 | x8 | x8 | [CA]4 z4 | z4 z2 F2 | z2 E2 z2 E2 | x8 | A2 B2 z2 E2 | E2 E2 E2 z2 | %37
 A2 z A z2 B2 | A2 B2 c2 A2 | x8 | z2 F,2 E,2 C,2 | A,,2 F,2 E,2 C,2 |[M:3/4] A,,6 |] %43
V:4
 x8 | x8 | x8 | x8 |[M:3/4] x6 |[M:1/4] x2 |[M:4/4] x8 | x8 | x8 | x8 | x8 | x8 | x8 | x8 | x8 | %15
 x8 | x8 | E,2 F,2 G,2 E,2 | z2 E,2[K:treble][K:bass] z2 E,2[K:treble] | z4 z2 D,2[K:treble] | x8 | %21
[M:3/4] x6 |[M:1/4] x2 |[M:4/4] z2 E,2[K:treble][K:bass] z2 E,2[K:treble] | x8 | %25
 z2 E,2[K:treble][K:bass] z2 E,2[K:treble] | x8 | z2 E,2 z2 E,2 | z2 [A,,C]2 z2 [D,A,]2[K:treble] | %29
 x8 | x8 | z2 E,2 z2 E,2 | z2 [A,,C]2 z2 .A,2 | x8 | x8 | C2 E2 z2 A,,2 | C,2 E,2[K:treble] z2 C2 | %37
 C2 z2 c2[K:bass] [E,D]2 | x8 | x8 | A,2 z2 z4 | x8 |[M:3/4] x6 |] %43
V:5
 x8 | x8 | x8 | x8 |[M:3/4] x6 |[M:1/4] x2 |[M:4/4] x7[K:bass] x | x8 | x8 | x8 | x7[K:bass] x | %11
 x8 | x8 | x8 | x8 | x8 | x8 | x8 | E8- | E4 z4 | x8 |[M:3/4] x6 |[M:1/4] x2 |[M:4/4] x8 | x8 | %25
 x8 | x8 | x8 | x8 | x8 | x8 | x8 | x8 | x8 | x8 | x8 | x8 | x8 | x8 | x8 | x8 | x8 |[M:3/4] x6 |] %43
V:6
 x8 | x8 | x8 | x8 |[M:3/4] x6 |[M:1/4] x2 |[M:4/4] x7[K:bass] x | x8 | x8 | x8 | x7[K:bass] x | %11
 x8 | x8 | x8 | x8 | x8 | x8 | x8 | x8 | z2 A4 z2 | x8 |[M:3/4] x6 |[M:1/4] x2 |[M:4/4] x8 | x8 | %25
 x8 | x8 | x8 | x8 | x8 | x8 | x8 | x8 | x8 | x8 | x8 | x8 | x8 | x8 | x8 | x8 | x8 |[M:3/4] x6 |] %43
V:7
 x8 | x8 | x8 | x8 |[M:3/4] x6 |[M:1/4] x2 |[M:4/4] x8 | x8 | x8 | x8 | x8 | x8 | x8 | x8 | x8 | %15
 x8 | x8 | x8 | x3[K:treble] x[K:bass] x3[K:treble] x | x7[K:treble] x | x8 |[M:3/4] x6 | %22
[M:1/4] x2 |[M:4/4] x3[K:treble] x[K:bass] x3[K:treble] x | x8 | %25
 x3[K:treble] x[K:bass] x3[K:treble] x | x8 | x8 | x7[K:treble] x | x8 | x8 | x8 | x8 | x8 | x8 | %35
 x8 | z4[K:treble] A,4- | A,6[K:bass] z2 | x8 | x8 | x8 | x8 |[M:3/4] x6 |] %43

